X: 21954
T: Kitty In The Lane
R: reel
M: 4/4
K: Gmajor
dc|:BGBd cBce|dgbg (3ddd ^cd|fdcA FDEF|GFGB ed^cd|
BGBd cBce|dgbg (3ddd ^cd|fdcA FDEF|1 GDB,D GBAc:|2 GDB,D Gcef||
|:gfga gdBg|e^def e^cAc|d^cde dBGB|A^GAB AFD2|
gfga gdBg|e^def e^cAc|dAGF E=cAF|1 GDB,D Gcef:|2 GDB,D GBAc||
|:BGBd cBce|dgbg (3ddd ^cd|fecA FDEF|GFGB ed^cd|
BGBd cBce|dgbg (3ddd ^cd|fecA FDEF|1 GDB,D GBAc:|2 GDB,D Gcef||
M:6/8
|:g3 f2^e|=e^fg d2c|BAG Bdg|f2e e^de|a3 g2a|
[1 gf^e f3|fe^d egf|e2d B2d:|2 gf^e f2=e|def gba|g3 d-||

